tools/download-figma-icons/icons/outlined-medium/detached-house.svg

<svg width="24" height="24" viewBox="0 0 24 24" fill="none" xmlns="http://www.w3.org/2000/svg">
<path fill-rule="evenodd" clip-rule="evenodd" d="M21 21.0004H15V15.0004C15 14.5856 14.6648 14.2504 14.25 14.2504H9.75C9.33525 14.2504 9 14.5856 9 15.0004V21.0004H3V12.0004H7.5C7.61625 12.0004 7.73175 11.9734 7.83525 11.9216L12 9.83887L16.1647 11.9216C16.2682 11.9734 16.3838 12.0004 16.5 12.0004H21V21.0004ZM10.5 21H13.5V15.75H10.5V21ZM4.03951 6H5.25001H7.50001H19.9605L22.0703 10.5H16.677L12.3353 8.32875C12.1245 8.22375 11.8755 8.22375 11.6648 8.32875L7.32301 10.5H1.92976L4.03951 6ZM6.00001 4.5H6.75001V3H6.00001V4.5ZM23.9288 10.9312L21.1163 4.93125C20.9933 4.66875 20.7285 4.5 20.4375 4.5H8.25001V2.25C8.25001 1.83525 7.91476 1.5 7.50001 1.5H5.25001C4.83526 1.5 4.50001 1.83525 4.50001 2.25V4.5H3.56251C3.27151 4.5 3.00676 4.66875 2.88376 4.93125L0.0712592 10.9312C-0.0382408 11.1645 -0.0202408 11.436 0.117009 11.652C0.255009 11.8688 0.493509 12 0.750009 12H1.50001V21.75C1.50001 22.1647 1.83526 22.5 2.25001 22.5H9.75001H14.25H21.75C22.1648 22.5 22.5 22.1647 22.5 21.75V12H23.25C23.5065 12 23.745 11.8688 23.883 11.652C24.0203 11.436 24.0383 11.1645 23.9288 10.9312ZM5.25001 14.25C4.83526 14.25 4.50001 14.5852 4.50001 15C4.50001 15.4148 4.83526 15.75 5.25001 15.75H6.75001C7.16476 15.75 7.50001 15.4148 7.50001 15C7.50001 14.5852 7.16476 14.25 6.75001 14.25H5.25001ZM18.75 15.75H17.25C16.8353 15.75 16.5 15.4148 16.5 15C16.5 14.5852 16.8353 14.25 17.25 14.25H18.75C19.1648 14.25 19.5 14.5852 19.5 15C19.5 15.4148 19.1648 15.75 18.75 15.75ZM5.25001 17.25C4.83526 17.25 4.50001 17.5853 4.50001 18C4.50001 18.4147 4.83526 18.75 5.25001 18.75H6.75001C7.16476 18.75 7.50001 18.4147 7.50001 18C7.50001 17.5853 7.16476 17.25 6.75001 17.25H5.25001ZM17.25 17.25H18.75C19.1648 17.25 19.5 17.5853 19.5 18C19.5 18.4147 19.1648 18.75 18.75 18.75H17.25C16.8353 18.75 16.5 18.4147 16.5 18C16.5 17.5853 16.8353 17.25 17.25 17.25Z" fill="black"/>
</svg>

<svg width="24" height="24" viewBox="0 0 24 24" fill="none" xmlns="http://www.w3.org/2000/svg"><path fill-rule="evenodd" clip-rule="evenodd" d="M21 21h-6v-6a.75.75 0 0 0-.75-.75h-4.5A.75.75 0 0 0 9 15v6H3v-9h4.5a.751.751 0 0 0 .335-.078L12 9.839l4.165 2.083A.76.76 0 0 0 16.5 12H21v9Zm-10.5 0h3v-5.25h-3V21ZM4.04 6h15.92l2.11 4.5h-5.393l-4.342-2.171a.753.753 0 0 0-.67 0L7.323 10.5H1.93L4.04 6ZM6 4.5h.75V3H6v1.5Zm17.929 6.431-2.813-6a.75.75 0 0 0-.678-.431H8.25V2.25a.75.75 0 0 0-.75-.75H5.25a.75.75 0 0 0-.75.75V4.5h-.937a.75.75 0 0 0-.68.431l-2.812 6A.75.75 0 0 0 .75 12h.75v9.75c0 .415.335.75.75.75h19.5a.75.75 0 0 0 .75-.75V12h.75a.75.75 0 0 0 .679-1.069ZM5.25 14.25a.75.75 0 1 0 0 1.5h1.5a.75.75 0 1 0 0-1.5h-1.5Zm13.5 1.5h-1.5a.75.75 0 1 1 0-1.5h1.5a.75.75 0 1 1 0 1.5Zm-13.5 1.5a.75.75 0 1 0 0 1.5h1.5a.75.75 0 1 0 0-1.5h-1.5Zm12 0h1.5a.75.75 0 1 1 0 1.5h-1.5a.75.75 0 1 1 0-1.5Z" fill="currentColor"/></svg>
